svgs/sharp-solid/transporter-6.svg

<svg xmlns="http://www.w3.org/2000/svg" viewBox="0 0 512 512"><!--! Font Awesome Pro 6.6.0 by @fontawesome - https://fontawesome.com License - https://fontawesome.com/license (Commercial License) Copyright 2024 Fonticons, Inc. --><path d="M64 32L96 48 64 64 48 96 32 64 0 48 32 32 48 0 64 32zM224 0l64 0 16 0 0 32-16 0-64 0-16 0 0-32 16 0zM112 256l288 0 16 0 0 32-16 0-288 0-16 0 0-32 16 0zM416 512l-120 0-80 0L96 512l0-64 320 0 0 64zm48-160l16 32 32 16-32 16-16 32-16-32-32-16 32-16 16-32z"/></svg>

<svg xmlns="http://www.w3.org/2000/svg" viewBox="0 0 512 512"><!--! Font Awesome Pro 6.4.2 by @fontawesome - https://fontawesome.com License - https://fontawesome.com/license (Commercial License) Copyright 2023 Fonticons, Inc. --><path d="M64 32L96 48 64 64 48 96 32 64 0 48 32 32 48 0 64 32zM224 0h64 16V32H288 224 208V0h16zM112 256H400h16v32H400 112 96V256h16zM416 512H296 216 96V448H416v64zm48-160l16 32 32 16-32 16-16 32-16-32-32-16 32-16 16-32z"/></svg>
